X:1
T:Title
%%score { 1 | ( 2 3 ) }
L:1/8
M:4/4
K:E
V:1 treble nm="Grand Piano"
V:2 bass 
V:3 bass 
V:1
 z4 z2[Q:1/4=100] E>F | G2 G>[FA] [GB]2 [Ge]>[Ac] | [GB]2 [GB]2 [GB]2 [Ac]>[GB] | %3
 [FA]2 [FA]2 [FA]2 [GB]>[FA] |[M:9/8] G2 G- G G2- GE>F |[M:3/4] G2 G>[FA] [GB]2 | %6
[M:1/4] [Ge]>[Ac] |[M:4/4] [GB]2 [GB]2 [GB]2 [Ac]>[GB] | [FA]2 [FA]2 [FA][Ac][GB]A | %9
[M:7/8] [B,EG]2 [A,DF]2 [G,E]3 |[M:1/4] [B,GB][Ge] |[M:4/4] ddcB e2 GG | AF[DB][FA] G2 AB | %13
 ccAc BG[FA][EG] | [DF]6 EF | GGFG A2 G[FA] |[M:7/8] [GB][GB][EG] [Ge] d3 |[M:1/4] [Ac][Ad] | %18
[M:4/4] [Ge][B,EG][B,EB][CEA] [B,EG][G,E] [A,DF]>[B,DG] |[M:3/4] [G,E]6 |] %20
V:2
 z4 z2 [E,G,]>[E,A,E] | [E,B,E]2 [E,B,E]>[E,B,] [E,B,]2 [E,B,]>[E,E] | %2
 [E,E]2 [E,E]2 [E,E]2 [E,E]>[E,B,] | [B,,B,]2 [B,,B,]2 [B,,B,]2 [B,,B,]>[B,,B,] | %4
[M:9/8] [E,B,E]2 [E,B,E]- [E,B,E] [E,B,E]2- [E,B,E][E,G,]>[E,A,E] | %5
[M:3/4] [E,B,E]2 [E,B,E]>[E,B,] [E,B,]2 |[M:1/4] [E,B,]>[E,E] | %7
[M:4/4] [E,E]2 [E,E]2 [E,E]2 [E,E]>[E,B,] | [B,,B,]2 [B,,B,]2 [B,,B,]2 z F |[M:7/8] B,,2 B,,2 E,3 | %10
[M:1/4] E,[E,B,] |[M:4/4][K:treble] [B,F][B,F][A,B,D][A,B,D] [G,B,E]2[K:bass] [E,B,E][E,B,E] | %12
 [F,B,D][F,B,D][B,,B,][B,,B,] [E,B,E]2 [F,B,D][G,B,E] | %13
 [A,E][A,E][A,CE][A,E] [G,B,E][E,B,E][D,B,][E,B,] | [B,,B,]6 [E,G,][E,A,E] | %15
 [E,B,E][E,B,E][A,B,D][G,B,E] [F,B,D]2 [E,B,E][E,B,] |[M:7/8] [E,E][E,E][E,B,] [E,B,] [B,F]3 | %17
[M:1/4] [B,,B,][B,,B,] |[M:4/4] [E,B,]E,G,,A,, B,,B,, B,,>B,, |[M:3/4] E,6 |] %20
V:3
 x8 | x8 | x8 | x8 |[M:9/8] x9 |[M:3/4] x6 |[M:1/4] x2 |[M:4/4] x8 | z4 z2 [B,,B,]2 |[M:7/8] x7 | %10
[M:1/4] x2 |[M:4/4][K:treble] x6[K:bass] x2 | x8 | x8 | x8 | x8 |[M:7/8] x7 |[M:1/4] x2 | %18
[M:4/4] x8 |[M:3/4] x6 |] %20

